X:1
T:Tell It Out
T:Isaac Hickman Meredith
T:Tell It Out
T:Public Domain
T:Public Domain
T:Public Domain
C:Isaac Hickman Meredith
Z:Public Domain
%%score ( 1 2 ) 3
L:1/8
M:2/4
K:Db
V:1 treble 
V:2 treble 
V:3 bass 
V:1
 [DF][EG] [FA]2 | [DF][EG] [FA]2 | [Fd][FA] [DF][EG] | [FA]4 | [Ac][GB] [CE][DF] | [EG]4 | %6
w: 1.~Tell it out!|Tell it out!|tell the sto- ry|sweet,|News from Heav’n re-|peat,|
w: 2.~Tell it out!|Tell it out!|Spread the news a-|far,|Where earth’s lost ones|are,|
w: 3.~Tell it out!|Tell it out!|Out a- cross the|sea|Where the dark lands|be;|
 [GB][FA] D[CE] | [DF]4 | [DF][EG] [FA]2 | [DF][EG] [FA]2 | [Fd][FA] [DF][EG] | [FA]4 | %12
w: Gos- pel tid- ings|Tell|it out! Tell|it out! Je-|sus waits to- day,|Waits|
w: send hope’s beam- ing|Tell|it out! Tell|it out! Let|the peo- ple know,|Of|
w: bid the dark- ness|Tell|it out! Tell|it out! Spread|the Gos- pel light,|Give|
 [GB][GB] [GB][Ge] | [Fd]2 (EG) | [Fd]4- | [Fd]4 || %16
w: to hear us when|we pray. *|||
w: the King who loves|them so. *|it||
w: the blind the means|of sight. *|||
"^Refrain" ([CGA]"^Male voices only"[CGA]) ([CGA][CGA]) | %17
w: |
w: out, * oh, *|
w: |
 ([CGA]"^Melody in bass"[CGA]) ([CGA][CGA]) | ([DFB][DFB]) ([DFB][DFB]) | ([DFB][DFB] [DFB][DFB]) | %20
w: |||
w: tell * it *|out, * Free- *|dom’s * * *|
w: |||
 ([CGA][CGA]) ([CGA][CGA]) | ([CGA][CGA]) ([CGA][CGA]) | ([DFA][DFA]) ([DFA][DFA]) | %23
w: |||
w: news * to *|bond- * men *|shout! * Spread *|
w: |||
 ([DFA][DFA] [DFA][DFA]) | ([CGA][CGA]) ([CGA][CGA]) | ([CGA][CGA]) ([CGA][CGA]) | %26
w: |||
w: the * * *|tid- * ings *|far * and *|
w: |||
 ([DFB][DFB]) ([DFB][DFB]) | ([DFB][DFB] [DFB][DFB]) | ([D=GB][DGB]) ([DGB][DGB]) | %29
w: |||
w: near, * Till *|the * * *|whole * wide *|
w: |||
 ([D=GB][DGB]) ([FAd][FAd]) | ([EAc][EAc]) ([DE=GB][DEGB]) | ([CE]2 [CG]2) | %32
w: |||
w: world * shall *|hear. * Tell *|it *|
w: |||
"^Unison" [DF][EG] [FA]2 | [DF][EG] [FA]2 | [Fd][FA] [DF][EG] | [FA]4 | [CGc][CGB] [CE][CF] | %37
w: |||||
w: Tell it out!|O- ver land|and sea, Tell it|joy-|us- ly! Tell tri-|
w: |||||
 [CG]4 | [FB][FA] D[DE] | [DF]4 | [DF][EG] [FA]2 | [DF][EG] [DFA]2 | [DG][DG] [DG][DG] | [D=Gd]4 | %44
w: |||||||
w: umph-|ant- ly! Tell it|out!|Tell it out!|Let the peo-|ple know Of the|King|
w: |||||||
 [DFAd]A FG | A2 [Ge]2 | [Fd]4- | [Fd]4 |] %48
w: ||||
w: who loves them so.||||
w: ||||
V:2
 x4 | x4 | x4 | x4 | x4 | x4 | x2 D x | x4 | x4 | x4 | x4 | x4 | x4 | x2 c2 | x4 | x4 || x4 | x4 | %18
w: ||||||sweet.||||||||||||
w: ||||||star.|||||||Tell|||||
w: ||||||flee.||||||||||||
 x4 | x4 | x4 | x4 | x4 | x4 | x4 | x4 | x4 | x4 | x4 | x4 | x4 | A4 | x4 | x4 | x4 | x4 | x4 | %37
w: |||||||||||||||||||
w: |||||||||||||out!||||||
w: |||||||||||||||||||
 x4 | x4 | x4 | x4 | x4 | x4 | x4 | x A FG | x4 | x4 | x4 |] %48
w: |||||||||||
w: |||||||||||
w: |||||||||||
V:3
 [D,A,][D,A,] [D,D]2 | [D,A,][D,A,] [D,D]2 | [D,A,][D,A,] [D,A,][D,A,] | [D,D]4 | %4
 A,A, [A,,A,][A,,A,] | [A,,A,]4 | [D,A,][D,A,] [F,A,][E,A,] | [D,A,]4 | [D,A,][D,A,] [D,D]2 | %9
 [D,A,][D,A,] [D,D]2 | [D,A,][D,A,] [D,A,][D,A,] | [D,D]4 | [G,D][G,D] [G,D][G,B,] | A,2 [A,,A,]2 | %14
 [D,A,]4- | [D,A,]4 || A,2 G,2 | E,2 G,2 | B,2 A,2 | F,4 | A,2 G,2 | E,2 G,2 | F,2 B,2 | A,4 | %24
 A,2 G,2 | E,2 G,2 | B,2 A,2 | F,4 | =G,2 F,2 | E,2 D2 | C2 B,2 | A,4 | [D,A,]2 [A,,A,]2 | %33
 [D,A,]2 [A,,A,]2 | [D,A,]2 [A,,A,]2 | [D,A,]2 [A,,A,]2 | [E,A,]2 [A,,A,]2 | [E,A,]2 [A,,A,]2 | %38
 [D,A,]2 [A,,A,]2 | [D,A,]2 [A,,A,]2 | [D,A,]2 [D,D]2 | [_C,_C]2 [C,C]2 | [B,,B,]2 [B,,B,]2 | %43
 [__B,,__B,]4 | [C,A,]A, F,G, | A,2 [A,C]2 | [D,D]4- | [D,D]4 |] %48

